X:1
T:La Debardeuse
C:Maxou Heintzen
R:polka
A:France
Z:abc transcription Simon Wascher
M:2/4
L:1/8
K:D
z |\
FF F/E/F/G/ | BA AB/c/ | dF BA/G/ | F/G/A/B/ A/G/F/E/ |
FF F/E/F/G/ | BA AB/c/ | dF BA/G/ | F/G/F/E/ D :|
|: d/c/ |\
BF BA/G/ | FE AG/F/ | E>F G/A/B/c/ | BA Ad/c/ |
BF BA/G/ | FE AG/F/ | E>F GF/E/ | DF D :|
%%wordsfont Times-Italic 11pt
W:aus Simon Waschers TradArchiv
